src/pos-icons/check-all.svg

<svg height="24" viewBox="0 0 24 24" width="24" xmlns="http://www.w3.org/2000/svg"><path d="m.41 13.41 5.59 5.59 1.41-1.42-5.58-5.58m20.41-6.42-10.58 10.59-4.16-4.17-1.43 1.41 5.59 5.59 12-12m-5.66 0-1.41-1.42-6.35 6.35 1.42 1.41z"/></svg>

<?xml version="1.0" encoding="UTF-8"?><!DOCTYPE svg PUBLIC "-//W3C//DTD SVG 1.1//EN" "http://www.w3.org/Graphics/SVG/1.1/DTD/svg11.dtd"><svg xmlns="http://www.w3.org/2000/svg" xmlns:xlink="http://www.w3.org/1999/xlink" version="1.1" id="mdi-check-all" width="24" height="24" viewBox="0 0 24 24"><path d="M0.41,13.41L6,19L7.41,17.58L1.83,12M22.24,5.58L11.66,16.17L7.5,12L6.07,13.41L11.66,19L23.66,7M18,7L16.59,5.58L10.24,11.93L11.66,13.34L18,7Z" /></svg>
